X: 19
T: HUMP MY LADY
B: "Old English Country Dances", Frank Kidson ed., William Reeves pub., London 1890
Z: 2010-9-26 John Chambers <jc:trillian.mit.edu>
M: C|
L: 1/8
K: Eb
B |\
e2e>g f2f>a | g2g>b (e2d2) | e2e>g c2c>e | Bedf (f2e2) :|
|: .B.e(d>f) .B.d(e>g) | .B.e(d>f) .B.d(e>g) | fedc B2B2 | cBAG F2F2 |
FEDC B,2B,2 | ceda gfed | (e>g).d.f (e>g).d.f | (e>g).d.f f2e2 :|


%%sep 1 1 500

%%sep 1 1 500

